material/.icons/material/go-kart-track.svg

<svg xmlns="http://www.w3.org/2000/svg" viewBox="0 0 24 24"><path d="M22 5.5A3.5 3.5 0 0018.5 2 3.5 3.5 0 0015 5.5V6a3 3 0 01-3 3c-2 0-3-3-6-3a4 4 0 00-4 4v1h2v-1a2 2 0 012-2c.86 0 1.42.45 2.32 1.24A5.584 5.584 0 0012 11a5 5 0 005-5v-.5A1.5 1.5 0 0118.5 4 1.5 1.5 0 0120 5.5c-.14.85-.42 1.68-.83 2.44C18.5 9.2 18.11 10.58 18 12c.09 1.37.5 2.71 1.21 3.89.39.65.66 1.36.79 2.11a2 2 0 01-2 2 2 2 0 01-2-2 3.75 3.75 0 00-3.75-3.75A3.75 3.75 0 008.5 18v.5A1.5 1.5 0 017 20a3 3 0 01-3-3v-2h2v-2H0v2h2v2a5 5 0 005 5 3.5 3.5 0 003.5-3.5V18a1.75 1.75 0 011.75-1.75A1.75 1.75 0 0114 18a4 4 0 004 4 4 4 0 004-4c0-2-2-4-2-6s2-4.5 2-6.5z"/></svg>

<?xml version="1.0" encoding="UTF-8"?><!DOCTYPE svg PUBLIC "-//W3C//DTD SVG 1.1//EN" "http://www.w3.org/Graphics/SVG/1.1/DTD/svg11.dtd"><svg xmlns="http://www.w3.org/2000/svg" xmlns:xlink="http://www.w3.org/1999/xlink" version="1.1" id="mdi-go-kart-track" width="24" height="24" viewBox="0 0 24 24"><path d="M22,5.5A3.5,3.5 0 0,0 18.5,2A3.5,3.5 0 0,0 15,5.5V6A3,3 0 0,1 12,9C10,9 9,6 6,6A4,4 0 0,0 2,10V11H4V10A2,2 0 0,1 6,8C6.86,8 7.42,8.45 8.32,9.24C9.28,10.27 10.6,10.9 12,11A5,5 0 0,0 17,6V5.5A1.5,1.5 0 0,1 18.5,4A1.5,1.5 0 0,1 20,5.5C19.86,6.35 19.58,7.18 19.17,7.94C18.5,9.2 18.11,10.58 18,12C18.09,13.37 18.5,14.71 19.21,15.89C19.6,16.54 19.87,17.25 20,18A2,2 0 0,1 18,20A2,2 0 0,1 16,18A3.75,3.75 0 0,0 12.25,14.25A3.75,3.75 0 0,0 8.5,18V18.5A1.5,1.5 0 0,1 7,20A3,3 0 0,1 4,17V15H6V13H0V15H2V17A5,5 0 0,0 7,22A3.5,3.5 0 0,0 10.5,18.5V18A1.75,1.75 0 0,1 12.25,16.25A1.75,1.75 0 0,1 14,18A4,4 0 0,0 18,22A4,4 0 0,0 22,18C22,16 20,14 20,12C20,10 22,7.5 22,5.5Z" /></svg>
